X:043
U: ~ = !turn!
%%topmargin 3cm
T:Cup of Tea
B:Traditional Irish Fiddle Tunes. Randy Miller and Jack Perron.
S:Sean McGuire
Z:Transcribed by Ralph Palmer
R:Reel
M:C|
L:1/8
K:D
A |: BAGF GE (3.E.E.E | GEBE GEEA "(A"| BAGF GE (3.E.E.E | FDAG FDDA "A)"|
BAGF GE (3.E.E.E | GEBE GEEA | BAGF GABc | dBAG FD D2 ::
(3.d.d.d eg fdec | (3.d.d.d eg fBBc | (3.d.d.d eg fdec | dBAG FDDA |
(3.d.d.d eg gdec | dfaf g2 fg | afge fdec | dBAG FD D2 ::
FA (3.A.A.A FAdA | FAdA FEEG | FA (3.A.A.A FABc | dBAG FDDG |
FA (3.A.A.A FAdA | FAdA FEEe | f2 ec dBAF | GBAG FD D2 :|]
xxxx "(A"| bagf ge (3.e.e.e | fgag fddA "A)"| xxxxxxxx [|] xxxxxxxx [|]
